X:479
T: WENN ALL DIE BAECHLEIN FLIESSEN
N: E0429C
O: Europa, Mitteleuropa, Deutschland, Hessen, Darmstadt, Brauerschwend
R: Liebes - Lied
M: 4/4
L: 1/8
K: G
D2 | D2G2G2B2 | d2B2A2
e2 | dcB2A4 | G4z2
G2 | G2B2d2de | d2cBc4 |
B4d2cB | d2A2A2
e2 | dcB2A4 | G4z2

@@@ Tune index: 4129
